!!!COM:      Bach, Johann Sebastian
!!!CDT:      1685/03/31/-1750/07/28/
!!!OPR@@GER: Das wohltemperirte Clavier
!!!OVM@@GER: Band II
!!!OPR@ENG:  Well-Tempered Clavier
!!!OVM@ENG:  Book II
!!!OTL:      Prelude
!!!OKY:      F-sharp minor
!!!ONM:      no. 14
!!!SCT:      BWV 883
!!!OMV:      1
**kern	**kern	**kern	**kern
*clefF4	*clefF4	*	*clefG2
*k[f#c#g#]	*k[f#c#g#]	*	*k[f#c#g#]
*f#:	*f#:	*	*f#:
*M3/4	*M3/4	*	*M3/4
*MM53	*MM53	*MM53	*MM53
=1-	=1-	=1-	=1-
[4F#	8r	2.ryy	8ff#
.	8A	.	4cc#
8.F#]	8c#	.	.
.	[8f#	.	16a
16G#	.	.	16b
8A	8f#]	.	24cc#
.	.	.	24b
.	.	.	24a
8c#	8e#	.	24b
.	.	.	24a
.	.	.	24g#
=2	=2	=2	=2
[2.F#	8f#	2.ryy	16a
.	.	.	16b
.	4c#	.	16a
.	.	.	16g#
.	.	.	16a
.	.	.	16cc#
.	16A	.	16ff#
.	16B	.	16gg#
.	24c#	.	24aa
.	24B	.	24gg#
.	24A	.	24ff#
.	24B	.	24gg#
.	24A	.	24ff#
.	24G#	.	24ee#
=3	=3	=3	=3
8F#]	8A	2.ryy	16ff#
.	.	.	8cc#
8G#	8B	.	.
.	.	.	16ee#
8A	8c#	.	16ff#
.	.	.	8cc#
8B	8g#	.	.
.	.	.	16ee#
8A	8f#	.	16ff#
.	.	.	16cc#
8G#	8e#	.	16ff#
.	.	.	16gg#
=4	=4	=4	=4
8F#	8f#	2.ryy	16aa
.	.	.	16ee#
8En	8c#	.	16ff#
.	.	.	16aa
2D	8F#	.	16b
.	.	.	16aa
.	8E#	.	16gg#
.	.	.	16aa
.	8F#	.	24bb
.	.	.	24aa
.	.	.	24gg#
.	8B	.	24aa
.	.	.	24gg#
.	.	.	24ff#
=5	=5	=5	=5
[2.C#	8r	2.ryy	16ee#
.	.	.	8b#
.	8G#	.	.
.	.	.	16cc#
.	8A	.	16ff#
.	.	.	8b#
.	8F#	.	.
.	.	.	16cc#
.	[4E#	.	24gg#
.	.	.	24bn
.	.	.	24cc#
.	.	.	24dd
.	.	.	24cc#
.	.	.	24b
=6	=6	=6	=6
4C#]	24E#]	2.ryy	[4a
.	24E#	.	.
.	24F#	.	.
.	24G#	.	.
.	24F#	.	.
.	24E#	.	.
4r	24F#	.	24a]
.	24G#	.	24g#
.	24A	.	24f#
.	24B	.	24e#
.	24A	.	24f#
.	24G#	.	24g#
8r	[4A	.	24f#
.	.	.	24e#
.	.	.	24f#
8BB#	.	.	16.dd#
.	.	.	32f#
=7	=7	=7	=7
4.C#	16A]	2.ryy	8.f#
.	32G#	.	.
.	32F#	.	.
.	[8G#	.	.
.	.	.	32e#
.	.	.	32d#
.	4G#]	.	24e#
.	.	.	24c#
.	.	.	24d#
8C#	.	.	24e#
.	.	.	24f#
.	.	.	24g#
8D#	4r	.	24f#
.	.	.	24e#
.	.	.	24f#
8E#	.	.	24g#
.	.	.	24a
.	.	.	24b
=8	=8	=8	=8
8F#	4r	2.ryy	32a
.	.	.	32g#
.	.	.	8f#
8FF#	.	.	.
.	.	.	32a
.	.	.	32cc#
8AA	4r	.	24ff#
.	.	.	24cc#
.	.	.	24dd#
8C#	.	.	24ee#
.	.	.	24ff#
.	.	.	24gg#
[4F#	8r	.	24aa
.	.	.	24gg#
.	.	.	24ff#
.	[8A	.	24gg#
.	.	.	24ff#
.	.	.	24een
=9	=9	=9	=9
8F#]	8.A]	2.ryy	16dd#
.	.	.	16ee
8D#	.	.	[8ff#
.	16A	.	.
4BB#	8G#	.	16ff#]
.	.	.	16ee
.	8F#	.	16dd#X
.	.	.	16aa
8r	8E	.	24gg#
.	.	.	24ff#
.	.	.	24ee
8GG#	8D#	.	24ff#
.	.	.	24ee
.	.	.	24dd#X
=10	=10	=10	=10
8.C#	[2C#	2.ryy	16ee
.	.	.	16dd#
.	.	.	[8cc#
16BBn	.	.	.
8AA	.	.	16cc#]
.	.	.	16dd#X
8GG#	.	.	16cc#
.	.	.	16b#
[4FF#	8C#]	.	16cc#
.	.	.	16ee
.	8C#	.	16a
.	.	.	16g#
=11	=11	=11	=11
8FF#]	8F#	2.ryy	16a
.	.	.	16b#
8GG#	8r	.	16f#
.	.	.	16e
8AA	4r	.	16f#
.	.	.	16b#X
8FF#	.	.	16cc#
.	.	.	16dd#
4GG#	8r	.	24ee
.	.	.	24dd#
.	.	.	24cc#
.	[8F#	.	24dd#
.	.	.	24cc#
.	.	.	24b#X
=12	=12	=12	=12
[4C#	8F#]	2.ryy	8cc#
.	8E	.	4g#
8.C#]	8G#	.	.
.	[8c#	.	16e
16D#	.	.	16f#
8E	8c#]	.	24g#
.	.	.	24f#
.	.	.	24e
8G#	8B#	.	24f#
.	.	.	24e
.	.	.	24d#
=13	=13	=13	=13
[4C#	8c#	2.ryy	16e
.	.	.	16f#
.	[8G#	.	16e
.	.	.	16d#
8.C#]	16G#]	.	16e
.	16F#	.	16g#
.	8E	.	16cc#
16BB	.	.	16dd#X
8AA#	8r	.	24ee
.	.	.	24ggn
.	.	.	24ff#
8C#	[8E	.	24ee
.	.	.	24ddn
.	.	.	24cc#
=14	=14	=14	=14
4FF#	8E]	2.ryy	24b
.	.	.	24a#
.	.	.	24cc#
.	8C#	.	[8e
8r	[2F#	.	32e]
.	.	.	32f#
.	.	.	32e
.	.	.	32d#
8C#	.	.	16e
.	.	.	[16e
8AA#	.	.	16e]
.	.	.	16a#X
8FF#	.	.	16b
.	.	.	16cc#
=15	=15	=15	=15
4.BB	8F#]	2.ryy	16dn
.	.	.	16e
.	8F#	.	16d
.	.	.	16c#
.	16B	.	16d
.	8F#	.	16f#
8D	.	.	16b
.	[16F#	.	16cc#
16BB	16F#]	.	24dd
.	.	.	24ff#
16D	[8.D	.	.
.	.	.	24ee
16GG#	.	.	24dd
.	.	.	24cc#
16BB	.	.	.
.	.	.	24b
=16	=16	=16	=16
4EE	8D]	2.ryy	24a
.	.	.	24g#
.	.	.	24b
.	8BB	.	[8d
8r	[2E	.	32d]
.	.	.	32e
.	.	.	32d
.	.	.	32c#
8BB	.	.	16d
.	.	.	[16d
8GG#	.	.	16d]
.	.	.	16g#
8EE	.	.	16a
.	.	.	16b
=17	=17	=17	=17
4AA	8E]	2.ryy	16c#
.	.	.	16d
.	8E	.	16c#
.	.	.	16B
4r	8A	.	16c#
.	.	.	16e
.	8G#	.	16a
.	.	.	16b
16r	[4A	.	[4cc#
16E	.	.	.
16C#	.	.	.
16AA	.	.	.
=18	=18	=18	=18
4.D	8A]	2.ryy	16cc#]
.	.	.	16gn
.	8A	.	16f#
.	.	.	16e
.	8d	.	16f#
.	.	.	16a
8F#	[8A	.	16dd
.	.	.	16ee
8D#	16A]	.	[4ff#
.	8A	.	.
8BB	.	.	.
.	16D#X	.	.
=19	=19	=19	=19
[2E	8G#	2.ryy	16ff#]
.	.	.	16a
.	8B	.	16g#
.	.	.	16f#
.	8e	.	16g#
.	.	.	16b
.	8B	.	16ee
.	.	.	16ff#
8E]	4G#	.	16bb
.	.	.	16dd
8E	.	.	16cc#
.	.	.	16b
=20	=20	=20	=20
8AA	8A	2.ryy	16cc#
.	.	.	16ff#
8BB	[8G#	.	16ee
.	.	.	16dd#
8C#	16G#]	.	16ee
.	8A	.	16cc#
8D	.	.	16b
.	[16B	.	16a
8E	16B]	.	16cc#
.	8A	.	16e
8E	.	.	16b
.	16G#	.	16dn
=21	=21	=21	=21
8.A	4A	2.ryy	16c#
.	.	.	16e
.	.	.	[8a
16E	.	.	.
16C#	4r	.	16a]
16AA	.	.	16e
16C#	.	.	16a
16E	.	.	16b
4A	8r	.	16cc#
.	.	.	16a
.	8cn	.	16f#
.	.	.	16dd#
=22	=22	=22	=22
8Gn	8B	2.ryy	16ee
.	.	.	8b
8F#	8A	.	.
.	.	.	16dd#
8E	8Gn	.	16ee
.	.	.	8b
8G	8B	.	.
.	.	.	16dd#
8C#	4c#	.	16ee
.	.	.	16b
8F#	.	.	16a#
.	.	.	16ee
=23	=23	=23	=23
8.B	4B	2.ryy	16ddn
.	.	.	16cc#
.	.	.	[8b
16F#	.	.	.
16D	4r	.	16b]
16BB	.	.	16f#
16D	.	.	16b
16F#	.	.	16cc#
4B	8r	.	16dd
.	.	.	16b
.	8d	.	16g#
.	.	.	16ee#
=24	=24	=24	=24
8A	8c#	2.ryy	16ff#
.	.	.	8cc#
8G#	8B	.	.
.	.	.	16ee#
8F#	8A	.	16ff#
.	.	.	8cc#
8A	8c#	.	.
.	.	.	16ee#
8D#	4d#X	.	16ff#
.	.	.	16cc#
8G#	.	.	16b#
.	.	.	16ff#
=25	=25	=25	=25
4c#	8.c#	2.ryy	16een
.	.	.	16dd#
.	.	.	[8cc#
.	16G#	.	.
4r	16E	.	16cc#]
.	16C#	.	16g#
.	16E	.	16cc#
.	16G#	.	16dd#X
8r	[4c#	.	16ee
.	.	.	16cc#
8E	.	.	16a#
.	.	.	16ggn
=26	=26	=26	=26
4D	8c#]	2.ryy	16ff#
.	.	.	16ddn
.	8F#	.	16b
.	.	.	16a#
4r	16D	.	16b
.	16BB	.	16f#
.	16D	.	16b
.	16F#	.	16dd
8r	8B	.	16ff#
.	.	.	16ddn
8D#	8F#	.	16b#
.	.	.	16aan
=27	=27	=27	=27
4E	8c#	2.ryy	16gg#
.	.	.	16ee
.	8G#	.	16cc#
.	.	.	16b#
4r	16E	.	16cc#
.	16C#	.	16g#
.	16E	.	16cc#
.	16G#	.	16ee
8r	8c#	.	16gg#
.	.	.	16ee#
8E#	8G#	.	16ddn
.	.	.	16bb
=28	=28	=28	=28
[4F#	8F#	2.ryy	16aa
.	.	.	8ff#
.	8G#	.	.
.	.	.	16ee#
8F#]	8A	.	16ff#
.	.	.	8dd
8E	8G#	.	.
.	.	.	16cc#
*MM48	*MM48	*MM48	*MM48
8D#	8F#	.	16cc#
.	.	.	8b#
8Dn	8G#	.	.
.	.	.	16ff#
=29	=29	=29	=29
*MM44	*MM44	*MM44	*MM44
*	*	*staff:7	*
*	*	*clefF4	*
*	*	*k[f#c#g#]	*
4C#	8A	4cc#	8ff#
*MM34	*MM34	*MM34	*MM34
.	8G#;	.	8ee#;
*MM53	*MM53	*MM53	*MM53
8r	4r	4ryy	4r
24BB	.	.	.
24C#	.	.	.
24D	.	.	.
24C#	4r	4ryy	4r
24BB	.	.	.
24AA	.	.	.
24BB	.	.	.
24AA	.	.	.
24GG#	.	.	.
=30	=30	=30	=30
8FF#	8r	2.ryy	8ff#
[4F#	8A	.	4cc#
.	8c#	.	.
16F#]	[8f#	.	16a
16G#	.	.	16b
8A	8f#]	.	24cc#
.	.	.	24b
.	.	.	24a
8c#	8e#	.	24b
.	.	.	24a
.	.	.	24g#
=31	=31	=31	=31
[2.F#	8f#	2.ryy	16a
.	.	.	16b
.	4c#	.	16a
.	.	.	16g#
.	.	.	16a
.	.	.	16cc#
.	16A	.	16ff#
.	16B	.	16gg#
.	24c#	.	24aa
.	24B	.	24gg#
.	24A	.	24ff#
.	24B	.	24gg#
.	24A	.	24ff#
.	24G#	.	24ee#
=32	=32	=32	=32
8F#]	8A	2.ryy	16ff#
.	.	.	8cc#
8G#	8B	.	.
.	.	.	16ee#
8A	8c#	.	16ff#
.	.	.	8cc#
8G#	8B	.	.
.	.	.	16ee#
8F#	8A	.	16ff#
.	.	.	16dd
8E	8Gn	.	16cc#
.	.	.	16aa#
=33	=33	=33	=33
8D	8F#	2.ryy	16bb
.	.	.	8ff#
8C#	8E	.	.
.	.	.	16aa#
8D	8F#	.	16bb
.	.	.	8ff#
8E	8c#	.	.
.	.	.	16aa#
8D	4F#	.	24bb
.	.	.	24aan
.	.	.	24gg#
8C#	.	.	24aa
.	.	.	24gg#
.	.	.	24ff#
=34	=34	=34	=34
8BB	8B	2.ryy	16ggn
.	.	.	8dd
8B	8d	.	.
.	.	.	16ff#
8B	8d	.	16gg
.	.	.	8dd
8B	8d	.	.
.	.	.	16ff#
8B	8d	.	24gg
.	.	.	24aa
.	.	.	24bb
8B	8d	.	24aa
.	.	.	24gg#
.	.	.	24ff#
=35	=35	=35	=35
4B	4c#	2.ryy	24ee#
.	.	.	24ff#
.	.	.	24gg#
.	.	.	24ff#
.	.	.	24ee#X
.	.	.	24dd#
8r	8r	.	24cc#
.	.	.	24b
.	.	.	24cc#
8E#	8G#	.	24ddn
.	.	.	24cc#
.	.	.	24b
8F#	[4c#	.	24a
.	.	.	24b
.	.	.	24cc#
8C#	.	.	24b
.	.	.	24a
.	.	.	24g#
=36	=36	=36	=36
4.D	8c#]	2.ryy	16f#
.	.	.	8ee#
.	8c#	.	.
.	.	.	16ff#
.	4B	.	16g#
.	.	.	8ff#
8D	.	.	.
.	.	.	16ee#
8C#	8r	.	16a#
.	.	.	8een
8Gn	8A#	.	.
.	.	.	16dd#
=37	=37	=37	=37
*MM52	*MM52	*MM52	*MM52
4.F#	8B#	2.ryy	24dd#
.	.	.	24ee
.	.	.	24ff#
.	8c#	.	24ee
.	.	.	24dd#
.	.	.	24cc#
.	8d#	.	24b#
.	.	.	24cc#
.	.	.	24dd#X
[8E	8G#	.	24cc#
.	.	.	24b#X
.	.	.	24a#
8E]	8A#	.	24g#
.	.	.	24f#
.	.	.	24g#
8D#X	8B#	.	24an
.	.	.	24g#
.	.	.	24f#
=38	=38	=38	=38
8C#	8B	2.ryy	24e#
.	.	.	24f#
.	.	.	24g#
8D#	8A	.	24f#
.	.	.	24e#X
.	.	.	24d#
8E#	8G#	.	[4c#
8F#	8A	.	.
8G#	8B	.	16c#]
.	.	.	32e#X
.	.	.	32g#
8GG#	8E#X	.	16b
.	.	.	16ddn
=39	=39	=39	=39
*MM51	*MM51	*MM51	*MM51
4.AA	8F#	2.ryy	24cc#
.	.	.	24dd#
.	.	.	24ee#
.	8C#	.	24ff#
.	.	.	24een
.	.	.	24ddn
.	4.F#	.	24cc#
.	.	.	24b
.	.	.	24a
8BB	.	.	24dd
.	.	.	24cc#
.	.	.	24b
8C#	.	.	24a
.	.	.	24g#
.	.	.	24f#
8BB	8E#	.	24g#
.	.	.	24f#
.	.	.	24e#
=40	=40	=40	=40
*MM51	*MM51	*MM51	*MM51
8AA#	4ryy	24r	[2f#
.	.	24en	.
.	.	24d	.
8F#	.	24c#	.
.	.	24d	.
.	.	24e	.
8BB	4ryy	24d	.
.	.	24c#	.
.	.	24B	.
8C#	.	24A#X	.
.	.	24B	.
.	.	24c#	.
8D	8ryy	8B	16f#]
.	.	.	8e#
8BB	8F#	8An	.
.	.	.	16f#
=41	=41	=41	=41
4.C#	8E#	8G#	16ddn
.	.	.	8b#
.	8F#	8A	.
.	.	.	16cc#
.	8G#	8B	16e#
.	.	.	8bn
8D	4F#	8ryy	.
.	.	.	16a
8BB	.	4ryy	24g#
.	.	.	24b
.	.	.	24a
8C#	8E#X	.	24g#
.	.	.	24f#
.	.	.	24e#X
=42	=42	=42	=42
*	*	*staff:2	*
*	*	*clefG2	*
8AA	8C#	4ryy	24f#
.	.	.	24g#
.	.	.	24a
8GG#	[8E#	.	24b
.	.	.	24cc#
.	.	.	24dd
*MM47	*MM47	*MM47	*MM47
8AA	24E#]	8r	8c#
.	24F#	.	.
.	24En	.	.
8r	24D	8G#	[8f#
.	24C#	.	.
.	24BB	.	.
*MM40	*MM40	*MM40	*MM40
8r	[4C#	8A	16f#]
.	.	.	8f#
8CC#	.	8B	.
.	.	.	16e#
=43	=43	=43	=43
2.FF#	2.C#]	2.A#	2.f#
==	==	==	==
*-	*-	*-	*-
!!!AFR:  prelude
!!!EFL:  75/96
!!!END:  1994/02/11/
!!!VID:  3637664957 Bach, BWV 883-01
!!!AST:  Baroque
!!!OCY:  Deutschland
!!!ODT:  1742///
!!!PDT:  1801///
!!!EED:  Walter Hewlett
!!!ENC:  Walter Hewlett
!!!YOR:  Bach Gesellschaft Edition xiv
!!!AFT:  enhanced SCORE
!!!RDT:  2011/10/07/ by Andreas Kornstaedt using massScr2hmd
!!!SCA1: Thematisch-systematisches Verzeichnis der musikalischen Werke 
!!!SCA2: Johann Sebastian Bach: Bach-Werke-Verzeichnis (Schmieder)
!!!YEC1: Copyright 1994, 2000 Center for Computer Assisted Research 
!!!YEC2: in the Humanities
!!!YEM1: Rights to all derivative editions reserved.
!!!YEM2: Refer to licensing agreement for further details.
!!!YEN:  United States of America
!!!ref:  @{OTL}, @{SCT}
!!muse2ps: T^@{OTL} @{ONM} in @{OKY}^C^J.S. Bach\n@{SCT}-@{OMV}^
!!muse2ps: u^@{OPR@ENG}, @{OVM@ENG}^j
